src/assets/svg/icons/fa/nuevos/classic/thin/toilet-paper-xmark classic thin.svg

<svg xmlns="http://www.w3.org/2000/svg" viewBox="0 0 512 512"><!--! Font Awesome Pro 6.4.0 by @fontawesome - https://fontawesome.com License - https://fontawesome.com/license (Commercial License) Copyright 2023 Fonticons, Inc. --><path d="M16 192c0 49.7 11.4 94.3 29.4 126.2C63.6 350.3 87.4 368 112 368H354.8c-13.6-10.2-25.5-24.7-35.3-42C299.9 291.3 288 243.9 288 192s11.9-99.3 31.5-134c9.8-17.3 21.7-31.8 35.3-42H112C87.4 16 63.6 33.7 45.4 65.8C27.4 97.7 16 142.3 16 192zM333.4 65.8C315.4 97.7 304 142.3 304 192s11.4 94.3 29.4 126.2c18.2 32.1 42 49.8 66.6 49.8s48.4-17.7 66.6-49.8c18-31.9 29.4-76.5 29.4-126.2s-11.4-94.3-29.4-126.2C448.4 33.7 424.6 16 400 16s-48.4 17.7-66.6 49.8zM496 472V291.5c-4.4 12.5-9.6 24.1-15.5 34.6c-19.5 34.5-47.6 58-80.5 58H112c-32.9 0-61-23.5-80.5-58C11.9 291.3 0 243.9 0 192S11.9 92.7 31.5 58C51 23.5 79.1 0 112 0H400c32.9 0 61 23.5 80.5 58C500.1 92.7 512 140.1 512 192V472c0 22.1-17.9 40-40 40H200c-22.1 0-40-17.9-40-40V416h16v56c0 13.3 10.7 24 24 24H472c13.3 0 24-10.7 24-24zM400 264c-8.7 0-15.7-4.2-20.6-9c-4.8-4.8-8.4-10.8-11.1-17.1c-5.4-12.6-8.3-28.8-8.3-45.9s2.9-33.3 8.3-45.9c2.7-6.3 6.3-12.3 11.1-17.1c4.9-4.8 11.9-9 20.6-9s15.7 4.2 20.6 9c4.8 4.8 8.4 10.8 11.1 17.1c5.4 12.6 8.3 28.8 8.3 45.9s-2.9 33.3-8.3 45.9c-2.7 6.3-6.3 12.3-11.1 17.1c-4.9 4.8-11.9 9-20.6 9zm24-72c0-30.9-10.7-56-24-56s-24 25.1-24 56s10.7 56 24 56s24-25.1 24-56zM229.7 253.7c-3.1 3.1-8.2 3.1-11.3 0L168 203.3l-50.3 50.3c-3.1 3.1-8.2 3.1-11.3 0s-3.1-8.2 0-11.3L156.7 192l-50.3-50.3c-3.1-3.1-3.1-8.2 0-11.3s8.2-3.1 11.3 0L168 180.7l50.3-50.3c3.1-3.1 8.2-3.1 11.3 0s3.1 8.2 0 11.3L179.3 192l50.3 50.3c3.1 3.1 3.1 8.2 0 11.3z"/></svg>

<svg xmlns="http://www.w3.org/2000/svg" viewBox="0 0 512 512"><path d="M229.7 253.7C226.5 256.8 221.5 256.8 218.3 253.7L167.1 203.3L117.7 253.7C114.5 256.8 109.5 256.8 106.3 253.7C103.2 250.5 103.2 245.5 106.3 242.3L156.7 192L106.3 141.7C103.2 138.5 103.2 133.5 106.3 130.3C109.5 127.2 114.5 127.2 117.7 130.3L167.1 180.7L218.3 130.3C221.5 127.2 226.5 127.2 229.7 130.3C232.8 133.5 232.8 138.5 229.7 141.7L179.3 192L229.7 242.3C232.8 245.5 232.8 250.5 229.7 253.7zM379.4 254.1C374.6 250.2 371 244.2 368.3 237.9C362.9 225.3 360 209.1 360 192C360 174.9 362.9 158.7 368.3 146.1C371 139.8 374.6 133.8 379.4 129C384.3 124.2 391.3 120 400 120C408.7 120 415.7 124.2 420.6 129C425.4 133.8 428.1 139.8 431.7 146.1C437.1 158.7 440 174.9 440 192C440 209.1 437.1 225.3 431.7 237.9C428.1 244.2 425.4 250.2 420.6 254.1C415.7 259.8 408.7 264 400 264C391.3 264 384.3 259.8 379.4 254.1zM400 136C386.7 136 376 161.1 376 192C376 222.9 386.7 248 400 248C413.3 248 424 222.9 424 192C424 161.1 413.3 136 400 136zM496 472V291.5C491.6 304 486.4 315.6 480.5 326C461 360.5 432.9 384 400 384H112C79.13 384 50.98 360.5 31.5 326C11.88 291.3 0 243.9 0 192C0 140.1 11.88 92.66 31.5 57.96C50.98 23.49 79.13 0 112 0H400C432.9 0 461 23.49 480.5 57.96C500.1 92.66 512 140.1 512 192V472C512 494.1 494.1 512 472 512H200C177.9 512 160 494.1 160 472V416H176V472C176 485.3 186.7 496 200 496H472C485.3 496 496 485.3 496 472zM45.43 318.2C63.59 350.3 87.44 368 112 368H354.8C341.2 357.8 329.3 343.3 319.5 326C299.9 291.3 288 243.9 288 192C288 140.1 299.9 92.66 319.5 57.96C329.3 40.69 341.2 26.18 354.8 16H112C87.44 16 63.59 33.7 45.43 65.83C27.4 97.72 16 142.3 16 192C16 241.7 27.4 286.3 45.43 318.2V318.2zM304 192C304 241.7 315.4 286.3 333.4 318.2C351.6 350.3 375.4 368 400 368C424.6 368 448.4 350.3 466.6 318.2C484.6 286.3 496 241.7 496 192C496 142.3 484.6 97.72 466.6 65.83C448.4 33.7 424.6 16 400 16C375.4 16 351.6 33.7 333.4 65.83C315.4 97.72 304 142.3 304 192V192z"/></svg>
